X:1
T:Title
%%score { ( 1 3 ) | ( 2 4 ) }
L:1/8
M:4/4
K:Ab
V:1 treble nm="Grand Piano"
V:3 treble 
V:2 bass 
V:4 bass 
V:1
 z4 z2[Q:1/4=100] [A,C][B,D] | [CE]2 [DF]2 [CE]2 [DF][DG] | [CA]2 [DB]2 [Ec]2 [Ec][Ec] | %3
 [Ec]2 [DB]2 [CA]3 [Ec] | c4 B2 C[B,D] | [CE]2 [DF]2 [CE]2 [DF][DG] | [CA]2 [DB]2 [Ec]2 [Ec][Ec] | %7
 [=Dc]2 [DB]2 [Dc]2 B2 |[M:3/4] e4 E2 |[M:11/32] c/4-c/4-c/4-c/4-c/4-c/4-c/-<c/ z/4 | %10
[M:4/4] (3:2:2[CA] z2 (3:2:2[CA] z2 (7:8:6[CA]-[CA]/4[B,G]/ [CA]/4-[CA][DB]/ | %11
 z4 z2 (3:2:2[Ec]3/2[Ec]3/2 | (9:8:8[Fd]2 [Fd]2- [Fd]/ [Fd]3/2[Fd]/[FA]/-[FA]3/2[FB]/ | %13
 z4 z2 (3:2:2[Ec]3/2[Fd]3/2 | z4 (5:4:4B2- B/ Bc3/2 | z4 (5:4:4A2- A/ AB3/2 | z4 c3- c/4 z/4 z/ | %17
[M:3/4] (3:2:2B6 [CA]3 |] %18
V:2
 z4 z2 [A,,E,][A,,E,] | [A,,A,]2 [A,,A,]2 [A,,A,]2 [A,,A,][A,,A,] | %2
 [A,,A,]2 [A,,A,]2 [A,,A,]2 [A,,A,][A,,A,] | [A,,E,]2 [A,,E,]2 [A,,A,]3 [A,,A,] | %4
 [E,A,E]4 [E,G,E]2 [A,,E,A,][A,,E,] | [A,,A,]2 [A,,A,]2 [A,,A,]2 [A,,A,][A,,A,] | %6
 [A,,A,]2 [A,,A,]2 [A,,A,]2 [A,,A,][A,,A,] | [B,,A,]2 [B,,A,]2 [B,,A,]2 [F,A,=D]2 | %8
[M:3/4] [E,G,E]4 [E,G,]2 |[M:11/32] E/4-E/4-E/4-E/4-E/-<E/-[E,-G,-D-E]/[E,G,D]/4 | %10
[M:4/4] (9:8:8[A,,A,]2 [A,,A,]2- [A,,A,]/ [A,,A,]3/2[A,,A,]/[A,,A,]/-[A,,A,]3/2[A,,A,]/ | %11
 (7:8:7[A,,A,-]3/2[A,,A,-]/[C,A,-][E,A,]/ A,3/2A,A, | %12
 (9:8:8[D,A,]2 [D,A,]2- [D,A,]/ [D,A,]3/2[D,A,]/[D,A,]/-[D,A,]3/2[D,A,]/ | %13
 (7:8:6A,3/2-[C,A,-]3/2[E,A,]/ A,3/2[A,,A,][A,,A,] | %14
 z4 (5:4:4[G,B,E]2- [G,B,E]/ [E,G,_D][E,G,E]3/2 | (3:2:2[A,C]3 [F,A,D]3 z4 | %16
 [A,E]3- [A,E]/4 z/4 z/ E3- E/4 z/4 z/ |[M:3/4] (3:2:2[E,G,D]6 [A,,A,]3 |] %18
V:3
 x8 | x8 | x8 | x8 | x8 | x8 | x8 | x8 |[M:3/4] x6 |[M:11/32] z/4 z/4 z/4 z/4 z/4 z/4 z/ B3/4 | %10
[M:4/4] x8 | [Ec]6- [Ec]/4 z/4 z/ z | x481/60 | [Ec]6- [Ec]/4 z/4 z/ z | (3:2:2B3 B3 z4 | %15
 (3:2:2A3 A3 z4 | (3:2:2c4 A2 z2 z A |[M:3/4] x6 |] %18
V:4
 x8 | x8 | x8 | x8 | x8 | x8 | x8 | x8 |[M:3/4] x6 | %9
[M:11/32] [E,G,]/4-[E,G,]/4-[E,G,]/4-[E,G,]/4-[E,G,]/-<[E,G,]/ z/4 z/ |[M:4/4] x8 | x8 | x481/60 | %13
 A,,2- A,,/4 z/4 z/ z z4 | (3:2:2[E,G,D]3 [F,A,=D]3 z4 | %15
 z4 (5:4:4[E,A,C]2- [E,A,C]/ [A,C][F,A,D]3/2 | (3:2:2E,4 [E,A,C]2 [E,A,]3 [E,A,C] |[M:3/4] x6 |] %18

